X: 1
T: The Sailor On The Rock
R: reel
M: 4/4
L: 1/8
K: Dmaj
dfed BcdB|AD (3FED FAAB|defe B2dB|ABdf gfef|
dfed BcdB|AD (3FED FAA2|dfed B2dB|ABdf ~e2d2||
faag fddf|gfga beeg|faaf gedB|ABdf ~e2d2|
faag fddf|gfga bgeg|agfe dcBc|ABde gfef||


Tune 765	Setting 13879

